!!!OTL: Wanderbetrachtung.
!!!OTL-incipit:WENN ICH MAL ZU HAUS WERD SEIN
!!!ARE: Europa, Mitteleuropa, Deutschland
!!!SCT: F0204
!!!TXL: @@DE
!!!YEM: Copyright 1995, estate of Helmut Schaffrath.
**kern	**text	**text
*ICvox	*	*
*clefG2	*	*
*M2/4	*	*
*k[]	*	*
*C:	*	*
=1	=1	=1
!LO:TX:a:t=Gehend.	!	!
!LO:TX:a:t=P:only the highest voice encoded:problem	!	!
{8cc/	1._Wenn	2._Kommt
8g	ich	einſt
8g	mat	der
8e	ʒu	ge-
=2	=2	=2
8cc/	Haus'	-wünſchte
8a	werd'	.
4g}	ſein,	Tag,
=3	=3	=3
{8g	und	wo
8b/	mein	ſie
8b/	Schatʒ	Hoch-
8dd/	blieb	-ʒeit
=4	=4	=4
8cc/	nicht	ha-
8ee/	al-	-ben
4dd/}	-lein,	mag,
=5	=5	=5
{8dd/	mach'	wie
8g	ich	wird
8g	mir	ſich
8g	nur	das
=6	=6	=6
8.g	we-	Mädchen
16a	-nig	.
4a}	draus,	freun,
=7	=7	=7
{8a	1._ſuch'	2._wenn
8b/	mir	ſie
8b/	ei-	wird
8b/	-ne	ver-
=8	=8	=8
8.b/	An-	-heirath't
16cc/	-dre	.
4cc/}	aus,	ſein,
=9	=9	=9
{8g	mach'	wie
8a	ich	wird
8b/	mir	ſich
8cc/	nur	das
=10	=10	=10
8dd	we-	Mädchen
8ee	-nig	.
4ff}	draus,	freun,
=11	=11	=11
{8ee	ſuch'	wenn
8dd	mir	ſie
8cc/	ei-	wird
8dd/	-ne	ver-
=12	=12	=12
8.b/	An-	-heirath't
16cc/	-dre	.
4cc/}	aus.	ſein!
==	==	==
!!!AGN: Liebes - Lied, Scherz
!!!ONB: ESAC (Essen Associative Code) Database: FINK
!!!AMT: simple duple
!!!AIN: vox
!!!EED: Helmut Schaffrath
!!!EEV: 1.0
!!!GTL: Volkslieder
!!!source: Musikalischer Hausschatz der Deutschen. Eine Sammlung von über 1000 Liedern und Gesängen mit Singstimmen und Klavierbegleitung. Leipzig, Litterarisches Verlags-Haus.
!!!page: 119
!!!URL-scan: https://www.digitale-sammlungen.de/en/view/bsb11144622?page=126,127
!!!ENC: Anna Maria Matuszewska
!!!EEV: 2024/07/26
*-	*-	*-